32x32/apps/echonest.svg

<svg xmlns="http://www.w3.org/2000/svg" width="32" height="32" version="1">
 <path fill="#4f4f4f" d="m30 16a14 14 0 0 1 -14 14 14 14 0 0 1 -14 -14 14 14 0 0 1 14 -14 14 14 0 0 1 14 14z"/>
 <path fill="#fff" opacity=".1" d="m16 2a14 14 0 0 0 -14 14 14 14 0 0 0 0.0215 0.586 14 14 0 0 1 13.978 -13.586 14 14 0 0 1 13.979 13.414 14 14 0 0 0 0.021 -0.414 14 14 0 0 0 -14 -14z"/>
 <path opacity=".2" d="m29.979 16.414a14 14 0 0 1 -13.979 13.586 14 14 0 0 1 -13.978 -13.414 14 14 0 0 0 -0.022 0.414 14 14 0 0 0 14 14 14 14 0 0 0 14 -14 14 14 0 0 0 -0.021 -0.586z"/>
 <g opacity=".2" transform="translate(0,1)">
  <path d="m16 6a10 10 0 0 0 -10 10 10 10 0 0 0 10 10v-3a7 7 0 0 1 -7 -7 7 7 0 0 1 7 -7 7 7 0 0 1 7 7h3a10 10 0 0 0 -10 -10z"/>
  <path d="m16 11a5 5 0 0 0 -5 5h3a2 2 0 0 1 2 -2 2 2 0 0 1 2 2h3a5 5 0 0 0 -5 -5z"/>
 </g>
 <g>
  <path fill="#fff" d="m16 6a10 10 0 0 0 -10 10 10 10 0 0 0 10 10v-3a7 7 0 0 1 -7 -7 7 7 0 0 1 7 -7 7 7 0 0 1 7 7h3a10 10 0 0 0 -10 -10z"/>
  <path fill="#00adef" d="m16 11a5 5 0 0 0 -5 5h3a2 2 0 0 1 2 -2 2 2 0 0 1 2 2h3a5 5 0 0 0 -5 -5z"/>
 </g>
</svg>

<svg xmlns="http://www.w3.org/2000/svg" width="32" height="32" version="1"><path fill="#4f4f4f" d="M30 16a14 14 0 0 1-14 14A14 14 0 0 1 2 16 14 14 0 0 1 16 2a14 14 0 0 1 14 14z"/><path fill="#fff" opacity=".1" d="M16 2A14 14 0 0 0 2 16a14 14 0 0 0 .021.586A14 14 0 0 1 16 3a14 14 0 0 1 13.978 13.414A14 14 0 0 0 30 16 14 14 0 0 0 16 2z"/><path opacity=".2" d="M29.979 16.414A14 14 0 0 1 16 30 14 14 0 0 1 2.022 16.586 14 14 0 0 0 2 17a14 14 0 0 0 14 14 14 14 0 0 0 14-14 14 14 0 0 0-.021-.586z"/><g opacity=".2"><path d="M16 7A10 10 0 0 0 6 17a10 10 0 0 0 10 10v-3a7 7 0 0 1-7-7 7 7 0 0 1 7-7 7 7 0 0 1 7 7h3A10 10 0 0 0 16 7z"/><path d="M16 12a5 5 0 0 0-5 5h3a2 2 0 0 1 2-2 2 2 0 0 1 2 2h3a5 5 0 0 0-5-5z"/></g><path fill="#fff" d="M16 6A10 10 0 0 0 6 16a10 10 0 0 0 10 10v-3a7 7 0 0 1-7-7 7 7 0 0 1 7-7 7 7 0 0 1 7 7h3A10 10 0 0 0 16 6z"/><path fill="#00adef" d="M16 11a5 5 0 0 0-5 5h3a2 2 0 0 1 2-2 2 2 0 0 1 2 2h3a5 5 0 0 0-5-5z"/></svg>
